outputs/icons/device/light_mode_round.svg

<svg xmlns="http://www.w3.org/2000/svg" width="1200" height="1200" fill="none"><g clip-path="url(#a)"><path fill="#000" d="M600 350c-138 0-250 112-250 250s112 250 250 250 250-112 250-250-112-250-250-250M100 650h100c27.5 0 50-22.5 50-50s-22.5-50-50-50H100c-27.5 0-50 22.5-50 50s22.5 50 50 50m900 0h100c27.5 0 50-22.5 50-50s-22.5-50-50-50h-100c-27.5 0-50 22.5-50 50s22.5 50 50 50M550 100v100c0 27.5 22.5 50 50 50s50-22.5 50-50V100c0-27.5-22.5-50-50-50s-50 22.5-50 50m0 900v100c0 27.5 22.5 50 50 50s50-22.5 50-50v-100c0-27.5-22.5-50-50-50s-50 22.5-50 50M299.5 229c-19.5-19.5-51.5-19.5-70.5 0-19.5 19.5-19.5 51.5 0 70.5l53 53c19.5 19.5 51.5 19.5 70.5 0s19.5-51.5 0-70.5zM918 847.5c-19.5-19.5-51.5-19.5-70.5 0C828 867 828 899 847.5 918l53 53c19.5 19.5 51.5 19.5 70.5 0 19.5-19.5 19.5-51.5 0-70.5zm53-548c19.5-19.5 19.5-51.5 0-70.5-19.5-19.5-51.5-19.5-70.5 0l-53 53c-19.5 19.5-19.5 51.5 0 70.5s51.5 19.5 70.5 0zM352.5 918c19.5-19.5 19.5-51.5 0-70.5C333 828 301 828 282 847.5l-53 53c-19.5 19.5-19.5 51.5 0 70.5s51.5 19.5 70.5 0z"/></g><defs><clipPath id="a"><path fill="#fff" d="M0 0h1200v1200H0z"/></clipPath></defs></svg>

<svg width="1200" height="1200" viewBox="0 0 1200 1200" fill="none" xmlns="http://www.w3.org/2000/svg"><g clip-path="url(#clip0_231_4442)"><path d="M600 350C462 350 350 462 350 600C350 738 462 850 600 850C738 850 850 738 850 600C850 462 738 350 600 350ZM100 650H200C227.5 650 250 627.5 250 600C250 572.5 227.5 550 200 550H100C72.5 550 50 572.5 50 600C50 627.5 72.5 650 100 650ZM1000 650H1100C1127.5 650 1150 627.5 1150 600C1150 572.5 1127.5 550 1100 550H1000C972.5 550 950 572.5 950 600C950 627.5 972.5 650 1000 650ZM550 100V200C550 227.5 572.5 250 600 250C627.5 250 650 227.5 650 200V100C650 72.5 627.5 50 600 50C572.5 50 550 72.5 550 100ZM550 1000V1100C550 1127.5 572.5 1150 600 1150C627.5 1150 650 1127.5 650 1100V1000C650 972.5 627.5 950 600 950C572.5 950 550 972.5 550 1000ZM299.5 229C280 209.5 248 209.5 229 229C209.5 248.5 209.5 280.5 229 299.5L282 352.5C301.5 372 333.5 372 352.5 352.5C371.5 333 372 301 352.5 282L299.5 229ZM918 847.5C898.5 828 866.5 828 847.5 847.5C828 867 828 899 847.5 918L900.5 971C920 990.5 952 990.5 971 971C990.5 951.5 990.5 919.5 971 900.5L918 847.5ZM971 299.5C990.5 280 990.5 248 971 229C951.5 209.5 919.5 209.5 900.5 229L847.5 282C828 301.5 828 333.5 847.5 352.5C867 371.5 899 372 918 352.5L971 299.5ZM352.5 918C372 898.5 372 866.5 352.5 847.5C333 828 301 828 282 847.5L229 900.5C209.5 920 209.5 952 229 971C248.5 990 280.5 990.5 299.5 971L352.5 918Z" fill="#1D1E23"/></g><defs><clipPath id="clip0_231_4442"><path width="24" fill="white" d="M0 0H1200V1200H0V0z"/></clipPath></defs></svg>
